X: 16080
T: Green Fields Of Rossbeigh, The
R: reel
M: 4/4
K: Edorian
|:BE ~E2 BAFB|ABde fded|BE ~E2 BAFA|BFAF E2dc|
B2 Bd BAFB|ABde fded|BE ~E2 BAFA|BFAF E2 FA:|
|:(3B^cd ef g2 fe|dB~B2 dBAd|(3B^cd ef g2 fe|dBAF E2 ef|
g3 a gfeg|f3 g fedB|ABde fded|B2AF E4:|

